Obsidian/actions/24s/task-due.svg

<svg height="24" viewBox="0 0 24 24" width="24" xmlns="http://www.w3.org/2000/svg"><path d="m12 4a2 2 0 0 0 -2 2h-4c-.554 0-1 .446-1 1v11c0 .554.446 1 1 1h9v-3h-7v-1h7v-2h-7v-1h7v-2h-7v-1h8v1h3v-3c0-.554-.446-1-1-1h-4a2 2 0 0 0 -2-2zm0 1a1 1 0 0 1 1 1 1 1 0 0 1 -1 1 1 1 0 0 1 -1-1 1 1 0 0 1 1-1z" fill="#bebebe"/><path d="m16 11v4l.25 2h1.5l.25-2v-4zm0 7v2h2v-2z" fill="#4285f4"/></svg>

<svg xmlns="http://www.w3.org/2000/svg" width="24" height="24" version="1.1" viewBox="0 0 24 24">
 <defs>
  <style id="current-color-scheme" type="text/css">
   .ColorScheme-Text { color:#bebebe; } .ColorScheme-Highlight { color:#4285f4; }
  </style>
 </defs>
 <path style="fill:currentColor" class="ColorScheme-Text" d="M 12,4 A 2,2 0 0 0 10,6 H 6 C 5.446,6 5,6.446 5,7 v 11 c 0,0.554 0.446,1 1,1 h 9 V 16 H 8 v -1 h 7 V 13 H 8 v -1 h 7 V 10 H 8 V 9 h 8 v 1 h 3 V 7 C 19,6.446 18.554,6 18,6 H 14 A 2,2 0 0 0 12,4 Z m 0,1 a 1,1 0 0 1 1,1 1,1 0 0 1 -1,1 1,1 0 0 1 -1,-1 1,1 0 0 1 1,-1 z"/>
 <path style="fill:currentColor" class="ColorScheme-Highlight" d="m 16,11 v 4 l 0.25,2 h 1.5 L 18,15 v -4 z m 0,7 v 2 h 2 v -2 z"/>
</svg>
